misc/icons/Mountain/64x64/apps/com.github.gi_lom.dialect.svg

<svg xmlns="http://www.w3.org/2000/svg" width="64" height="64" version="1.1">
 <path style="opacity:0.2" d="m 41.26713,46.929554 c 0.375512,0.93162 0.283526,1.929718 -1.074086,2.667716 l -4.433928,3.201258 c -0.795092,0.389736 -2.148172,2.134172 0,3.174156 -1.827182,-0.237594 -2.215304,-1.531856 -2.685218,-2.640612 l -8.592694,-22.942354 13.563666,8.53669 z"/>
 <path style="opacity:0.2" d="M 30.925726,20 H 57.21132 C 59.311266,20 61,21.664726 61,23.73482 V 52.265182 C 61,54.335276 59.311266,56 57.21132,56 H 36.29616 c -1.074088,0 -1.776862,-0.316408 -2.416696,-1.05882 z"/>
 <path style="fill:#e4e4e4" d="M 30.925726,19 H 57.21132 C 59.311266,19 61,20.664726 61,22.73482 V 51.265182 C 61,53.335276 59.311266,55 57.21132,55 H 36.29616 c -1.074088,0 -1.776862,-0.316408 -2.416696,-1.05882 z"/>
 <path style="opacity:0.1" d="m 42.614768,31.353529 -1.747486,-0.09796 c 0.0188,0.52729 -0.0188,0.99415 -0.0986,1.61941 -0.03986,0.331378 -0.11748,1.360036 -0.1951,1.866474 H 40.23793 c -1.195782,0 -2.689406,-0.13756 -3.72993,-0.312624 l 0.02098,1.521452 c 1.139124,0.09796 2.374752,0.19592 3.729928,0.19592 h 0.0188 c -0.49089,2.202946 -1.275478,5.009024 -2.27615,6.957842 l 1.451682,0.527292 c 0.1972,-0.350138 0.373412,-0.62318 0.608362,-0.917056 1.315328,-1.540178 3.476122,-3.030464 5.81081,-3.030464 2.297098,0 3.494974,1.82167 3.494974,3.26389 0,3.22004 -4.397044,3.980712 -8.951442,3.355506 l 0.41117,1.56104 c 5.968166,0.623178 10.151198,-0.877412 10.151198,-4.954054 0,-2.263396 -1.827184,-4.551916 -4.94875,-4.551916 -2.041194,0 -3.80753,1.17766 -5.515436,2.367698 0.411172,-1.112918 0.862224,-2.981134 1.216724,-4.61927 2.492206,-0.09796 5.496104,-0.410578 7.793576,-0.819096 l -0.0188,-1.481812 c -2.414602,0.525204 -5.183706,0.798234 -7.481016,0.896194 0.0986,-0.42934 0.15734,-1.418408 0.216074,-1.71015 0.11748,-0.527288 0.216074,-1.131696 0.373412,-1.638136 z m 7.361256,-0.683576 -1.040522,0.44809 c 0.53075,0.723218 1.197876,1.911152 1.590132,2.711466 l 1.06152,-0.46685 c -0.392294,-0.800314 -1.120218,-1.990382 -1.61113,-2.692738 z m 2.179644,-0.779454 -1.04052,0.448092 c 0.549608,0.721136 1.197874,1.834054 1.630032,2.690656 l 1.059428,-0.485608 c -0.373412,-0.723218 -1.139124,-1.932014 -1.648886,-2.653152 z"/>
 <path style="opacity:0.2;fill:#ffffff" d="M 30.925781 19 L 31.009766 20 L 57.210938 20 C 59.310883 20 61 21.66428 61 23.734375 L 61 22.734375 C 61 20.66428 59.310883 19 57.210938 19 L 30.925781 19 z"/>
 <path style="fill:#6b6a6e" d="m 42.614768,30.35353 -1.747486,-0.09796 c 0.0188,0.52729 -0.0188,0.99415 -0.0986,1.61941 -0.03986,0.331378 -0.11748,1.360036 -0.1951,1.866474 H 40.23793 c -1.195782,0 -2.689406,-0.13756 -3.72993,-0.312624 l 0.02098,1.521452 c 1.139124,0.09796 2.374752,0.19592 3.729928,0.19592 h 0.0188 c -0.49089,2.202946 -1.275478,5.009024 -2.27615,6.957842 l 1.451682,0.527292 c 0.1972,-0.350138 0.373412,-0.62318 0.608362,-0.917056 1.315328,-1.540178 3.476122,-3.030464 5.81081,-3.030464 2.297098,0 3.494974,1.82167 3.494974,3.26389 0,3.22004 -4.397044,3.980712 -8.951442,3.355506 l 0.41117,1.56104 c 5.968166,0.623178 10.151198,-0.877412 10.151198,-4.954054 0,-2.263396 -1.827184,-4.551916 -4.94875,-4.551916 -2.041194,0 -3.80753,1.17766 -5.515436,2.367698 0.411172,-1.112918 0.862224,-2.981134 1.216724,-4.61927 2.492206,-0.09796 5.496104,-0.410578 7.793576,-0.819096 l -0.0188,-1.481812 c -2.414602,0.525204 -5.183706,0.798234 -7.481016,0.896194 0.0986,-0.42934 0.15734,-1.418408 0.216074,-1.71015 0.11748,-0.527288 0.216074,-1.131696 0.373412,-1.638136 z m 7.361256,-0.683576 -1.040522,0.44809 c 0.53075,0.723218 1.197876,1.911152 1.590132,2.711466 l 1.06152,-0.46685 c -0.392294,-0.800314 -1.120218,-1.990382 -1.61113,-2.692738 z m 2.179644,-0.779454 -1.04052,0.448092 c 0.549608,0.721136 1.197874,1.834054 1.630032,2.690656 l 1.059428,-0.485608 c -0.373412,-0.723218 -1.139124,-1.932014 -1.648886,-2.653152 z"/>
 <path style="fill:#7d45a8" d="m 41.26713,45.929554 c 0.375512,0.93162 0.283526,1.929718 -1.074086,2.667716 l -4.433928,3.201258 c -0.795092,0.389736 -2.148172,2.134172 0,3.174156 -1.827182,-0.237594 -2.215304,-1.531856 -2.685218,-2.640612 l -8.592694,-22.942354 13.563666,8.53669 z"/>
 <path style="opacity:0.2" d="M 6.7883048,10.04799 27.13742,10.000185 c 2.099942,-0.0049 3.031342,1.853982 3.78868,3.784254 1.252386,3.585397 10.602472,33.801609 10.602472,33.801609 C 41.096418,46.675704 40.05584,46 38.981754,46 H 6.7886808 C 4.6887332,46 3,44.331674 3,42.260676 V 13.784068 C 3,11.713071 4.6887332,9.999815 6.7886808,9.999815 Z"/>
 <path style="fill:#cd50dc" d="M 6.7883048,9.0479898 27.13742,9.0001854 c 2.099942,-0.00494 3.031342,1.8539816 3.78868,3.7842536 1.252386,3.585397 10.602472,33.801609 10.602472,33.801609 C 41.096418,45.675704 40.05584,45 38.981754,45 H 6.7886808 C 4.6887332,45 3,43.331674 3,41.260676 V 12.784068 C 3,10.713071 4.6887332,8.9998146 6.7886808,8.9998146 Z"/>
 <g style="opacity:0.2" transform="matrix(0.5365218,0,0,0.50139674,10.759293,35)">
  <path d="m 2.3125,0 h 11.328 c 8.2656,0 14.766,-6.1406 14.766,-13.875 0,-7.8594 -6.5,-14.047 -14.766,-14.047 H 2.3125 Z m 11.172,-21.938665 c 4.3906,0 7.466572,3.595265 7.466572,8.064065 0,4.375 -3.097892,7.4224401 -7.466572,7.8913142 H 9.7679285 V -21.938765 Z"/>
 </g>
 <g style="fill:#e8b3e9" transform="matrix(0.5365218,0,0,0.50139674,10.759293,34)">
  <path d="m 2.3125,0 h 11.328 c 8.2656,0 14.766,-6.1406 14.766,-13.875 0,-7.8594 -6.5,-14.047 -14.766,-14.047 H 2.3125 Z m 11.172,-21.938665 c 4.3906,0 7.466572,3.595265 7.466572,8.064065 0,4.375 -3.097892,7.4224401 -7.466572,7.8913142 H 9.7679285 V -21.938765 Z"/>
 </g>
 <path style="opacity:0.2;fill:#ffffff" d="M 6.7890625 9 C 4.6891151 9 3 10.714159 3 12.785156 L 3 13.785156 C 3 11.714159 4.6891151 10 6.7890625 10 L 6.7890625 10.046875 L 27.136719 10 C 29.236661 9.99506 30.168443 11.854884 30.925781 13.785156 C 32.109775 17.174755 40.083835 42.927091 41 45.886719 C 41.213792 46.096207 41.402913 46.323819 41.527344 46.585938 C 41.527344 46.585938 32.178167 16.370553 30.925781 12.785156 C 30.168443 10.854884 29.236661 8.99506 27.136719 9 L 6.7890625 9.046875 L 6.7890625 9 z"/>
</svg>

<svg xmlns="http://www.w3.org/2000/svg" width="64" height="64" version="1.1">
 <path style="opacity:0.2" d="M 41.267,46.93 C 41.643,47.861 41.551,48.859 40.193,49.597 L 35.759,52.799 C 34.964,53.188 33.611,54.933 35.759,55.973 33.932,55.735 33.544,54.441 33.074,53.332 L 24.481,30.39 38.045,38.926 Z"/>
 <path style="opacity:0.2" d="M 30.926,20 H 57.211 C 59.311,20 61,21.665 61,23.735 V 52.265 C 61,54.335 59.311,56 57.211,56 H 36.296 C 35.222,56 34.519,55.684 33.879,54.941 Z"/>
 <path style="fill:#e4e4e4" d="M 30.926,19 H 57.211 C 59.311,19 61,20.665 61,22.735 V 51.265 C 61,53.335 59.311,55 57.211,55 H 36.296 C 35.222,55 34.519,54.684 33.879,53.941 Z"/>
 <path style="opacity:0.1" d="M 42.615,31.354 40.867,31.256 C 40.886,31.783 40.848,32.25 40.769,32.875 40.729,33.206 40.651,34.235 40.574,34.741 H 40.238 C 39.042,34.741 37.549,34.604 36.508,34.429 L 36.529,35.95 C 37.668,36.048 38.904,36.146 40.259,36.146 H 40.278 C 39.787,38.349 39.002,41.155 38.002,43.104 L 39.453,43.631 C 39.65,43.281 39.827,43.008 40.062,42.714 41.377,41.174 43.538,39.684 45.872,39.684 48.17,39.684 49.367,41.505 49.367,42.948 49.367,46.168 44.97,46.928 40.416,46.303 L 40.827,47.864 C 46.795,48.487 50.978,46.987 50.978,42.91 50.978,40.647 49.151,38.358 46.03,38.358 43.988,38.358 42.222,39.536 40.514,40.726 40.925,39.613 41.376,37.745 41.731,36.107 44.223,36.009 47.227,35.696 49.524,35.288 L 49.506,33.806 C 47.091,34.331 44.322,34.604 42.025,34.702 42.123,34.273 42.182,33.284 42.241,32.992 42.358,32.465 42.457,31.86 42.614,31.354 Z M 49.976,30.67 48.936,31.118 C 49.466,31.841 50.133,33.029 50.526,33.83 L 51.587,33.363 C 51.195,32.562 50.467,31.372 49.976,30.67 Z M 52.156,29.89 51.115,30.339 C 51.665,31.06 52.313,32.173 52.745,33.029 L 53.805,32.544 C 53.431,31.82 52.665,30.612 52.156,29.89 Z"/>
 <path style="opacity:0.2;fill:#ffffff" d="M 30.926,19 31.01,20 H 57.211 C 59.311,20 61,21.664 61,23.734 V 22.734 C 61,20.664 59.311,19 57.211,19 Z"/>
 <path style="fill:#6b6a6e" d="M 42.615,30.354 40.867,30.256 C 40.886,30.783 40.848,31.25 40.769,31.875 40.729,32.206 40.651,33.235 40.574,33.741 H 40.238 C 39.042,33.741 37.549,33.604 36.508,33.429 L 36.529,34.95 C 37.668,35.048 38.904,35.146 40.259,35.146 H 40.278 C 39.787,37.349 39.002,40.155 38.002,42.104 L 39.453,42.631 C 39.65,42.281 39.827,42.008 40.062,41.714 41.377,40.174 43.538,38.684 45.872,38.684 48.17,38.684 49.367,40.505 49.367,41.948 49.367,45.168 44.97,45.928 40.416,45.303 L 40.827,46.864 C 46.795,47.487 50.978,45.987 50.978,41.91 50.978,39.647 49.151,37.358 46.03,37.358 43.988,37.358 42.222,38.536 40.514,39.726 40.925,38.613 41.376,36.745 41.731,35.107 44.223,35.009 47.227,34.696 49.524,34.288 L 49.506,32.806 C 47.091,33.331 44.322,33.604 42.025,33.702 42.123,33.273 42.182,32.284 42.241,31.992 42.358,31.465 42.457,30.86 42.614,30.354 Z M 49.976,29.67 48.936,30.118 C 49.466,30.841 50.133,32.029 50.526,32.83 L 51.587,32.363 C 51.195,31.562 50.467,30.372 49.976,29.67 Z M 52.156,28.89 51.115,29.339 C 51.665,30.06 52.313,31.173 52.745,32.029 L 53.805,31.544 C 53.431,30.82 52.665,29.612 52.156,28.89 Z"/>
 <path style="fill:#1d7a4f" d="M 41.267,45.93 C 41.643,46.861 41.551,47.859 40.193,48.597 L 35.759,51.799 C 34.964,52.188 33.611,53.933 35.759,54.973 33.932,54.735 33.544,53.441 33.074,52.332 L 24.481,29.39 38.045,37.926 Z"/>
 <path style="opacity:0.2" d="M 6.7883,10.048 27.137,10 C 29.237,9.9953 30.169,11.854 30.926,13.784 32.178,17.37 41.529,47.586 41.529,47.586 41.096,46.676 40.056,46 38.982,46 H 6.7887 C 4.6887,46 3,44.332 3,42.261 V 13.784 C 3,11.713 4.6887,9.9998 6.7887,9.9998 Z"/>
 <path style="fill:#33d17a" d="M 6.7883,9.048 27.137,9.0002 C 29.237,8.9952 30.169,10.854 30.926,12.784 32.178,16.37 41.529,46.586 41.529,46.586 41.096,45.676 40.056,45 38.982,45 H 6.7887 C 4.6887,45 3,43.332 3,41.261 V 12.784 C 3,10.713 4.6887,8.9998 6.7887,8.9998 Z"/>
 <path style="opacity:0.2" d="M 12,35 H 18.078 C 22.512,35 26,31.921 26,28.043 26,24.103 22.513,21 18.078,21 H 12 Z M 17.994,24 C 20.349,24 22,25.803 22,28.043 22,30.237 20.337,31.765 17.994,32 H 16 V 24 Z"/>
 <path style="fill:#ffffff" d="M 12,34 H 18.078 C 22.512,34 26,30.921 26,27.043 26,23.103 22.513,20 18.078,20 H 12 Z M 17.994,23 C 20.349,23 22,24.803 22,27.043 22,29.237 20.337,30.765 17.994,31 H 16 V 23 Z"/>
 <path style="opacity:0.2;fill:#ffffff" d="M 6.7891,9 C 4.6891,9 3,10.714 3,12.785 V 13.785 C 3,11.714 4.6891,10 6.7891,10 V 10.047 L 27.137,10 C 29.237,9.9951 30.168,11.855 30.926,13.785 32.11,17.175 40.084,42.927 41,45.887 41.214,46.096 41.403,46.324 41.527,46.586 41.527,46.586 32.178,16.371 30.926,12.785 30.168,10.855 29.237,8.9951 27.137,9 L 6.7891,9.0469 Z"/>
</svg>
